X: 10763
M: 2/4
L: 1/16
K: D
[|\
M: 6/8
L: 1/8
edc def | gfe fed | edc dfa | ABA Aef |\
gfe d2A | dfa agf | age dfa | ABc "^D.C."d2 |]



